X: 1361
T: Mest-i Nâzım Kim Büyüttü
C: Yusuf Ziya Paşa
O: Turkey
F: http://compmusic.upf.edu/node/140
N: nisaburek--sarki--yuruksemai_ii--mest-i_nazim--yusuf_ziya_pasa
N: makam= nisaburek
N: form= sarki
N: usul= yuruksemai_ii = 6/8
M: 6/8
L: 1/16
K: C ^9/8f ^3/4c ^3/4g 
Q: 1/4=180
%%MIDI tuningsystem comma53
A6E6  | ^c4 B2A6  | e2d2 e2f2 e2d2  | ^c4 B2A6  | \
w:  ARANAĞME  |   |   |     | 
A6E6  | ^c4 B2A6  | e2d2 e2f2 e2d2  | 
w:  ARANAĞME  |   |   | 
^c4 B2A6  | A6e6  | f2e2 d2^c6  | f2e2 d2^c4B2  | \
w:     |  Mest_ i   |  nâ *  *  zım   |  kim  *  *  bü  | 
B4 A2A6  | A4 ^c2B4d2  | 
w:  yüt *  tü   |  böy *  le   | 
B2^c2 d2c2 B2A2  | e4 d2d2 ^c2B2  | ^c4 d2e6  | \
w:  bî *  *  per  |  va   |  se *  ni    | 
A6e6  | f2e2 d2^c6  | f2e2 d2^c4B2  | 
w:  Mest_ i   |  nâ *  *  zım   |  kim  *  *  bü  | 
B4 A2A6  | A4 ^c2B4d2  | B2^c2 d2c2 B2A2  | \
w:  yüt *  tü   |  böy *  le   |  bî *  *  per  | 
e4 d2d2 ^c2B2  | ^c4 d2e6  | 
w:  va   |  se *  ni    | 
f6d4f2  | e4 d2^c6  | d6B2 ^c2d2  | ^c2B2 A2e6  | \
w:  Kim  ye  |  tiş *  tir  |  di  bu   |  gû *  *  nâ   | 
A6E4F2  | ^G4 A2B4^c2  | 
w:  serv  |  den  *  bâ  | 
A6e4d2  | ^c4 B2A6  | f6d4f2  | e4 d2^c6  | \
w:  lâ   |  se *  ni    |  Kim  ye  |  tiş *  tir  | 
d6B2 ^c2d2  | ^c2B2 A2e6  | A6E4F2  | 
w:  di  bu   |  gû *  *  nâ   |  serv  | 
^G4 A2B4^c2  | A6e4d2  | ^c4 B2A6  | e8-e2a2  | \
w:  den  *  bâ  |  lâ   |  se *  ni    |  Bûy  | 
^g2a2 b2a6  | e4 f2=g4f2  | 
w:  dan  *  *  hoş   |  renk  | 
e4 d2^c6  | d8-d2^c2  | e2d2 ^c2B6  | ^c2B2 d2c2 B2A2  | \
w:  ten  *  pa  |  ki  |  *  ze *  dir   |  na *  *  zik   | 
^c4 d2e6  | e8-e2a2  | 
w:  te *  nin    |  Bûy  | 
^g2a2 b2a6  | e4 f2=g4f2  | e4 d2^c6  | \
w:  dan  *  *  hoş   |  renk  |  ten  *  pa  | 
d8-d2^c2  | e2d2 ^c2B6  | ^c2B2 d2c2 B2A2  | 
w:  ki  |  *  ze *  dir   |  na *  *  zik   | 
^c4 d2e6  | f6d4f2  | e4 d2^c6  | d6B2 ^c2d2  | \
w:  te *  nin    |  Bes le  |  miş  *  koy  |  nun da   | 
^c2B2 A2e6  | A6E4F2  | ^G4 A2B4^c2  | 
w:  gû *  *  ya   |  kim  gül_  |  i  *  râ  | 
A6e4d2  | ^c4 B2A6  | f6d4f2  | e4 d2^c6  | \
w:  nâ   |  se *  ni    |  Bes le  |  miş  *  koy  | 
d6B2 ^c2d2  | ^c2B2 A2e6  | A6E4F2  | 
w:  nun da   |  gû *  *  ya   |  kim  gül_  | 
^G4 A2B4^c2  | A6e4d2  | ^c4 B2A6  | |


